X:1
T:Susanne un iour
T:Noé Faignient
T:Source : La fleur des chansons à 3---Louvain---P.Phalèse---1574. Editor : André Vierendeels (22/09/18) Notes : Original clefs : G2, C2, C3 Original note values have been halved Editorial accidentals above the staff Dotted bracket  indicates black notes
T:Susanne un iour
T:©
T:©
T:©
T:©
T:©
T:©
C:Noé Faignient
Z:©
%%score [ 1 2 3 ]
L:1/8
Q:1/4=120
M:2/2
K:F
V:1 treble nm="Soprano" snm="S"
V:2 treble nm="Alto" snm="A"
V:3 treble-8 nm="Tenor" snm="T"
V:1
 G4 B4 | c4 d2 d2- | d2 f4 e2 | f2 d2 d2 d2 | e2 d2 c4 | B2 f2 f2 d2 | g2 f2 _e4 | d4 f4 | %8
w: Su- san-|ne'un iour, su-|* san- ne'un|iour d'a- mour sol-|li- ci- té-|e, d'a- mour sol-|li- ci- té-|e par|
"^-natural" f2 f2 e4 | d4 c2 =B2 | c4 c4 | =B2 z G B4 | c4 d4- | d2 d2 c3 B | A4 z2 f2 | %15
w: deux vieil- lards|con- voi- tans|sa beau-|té, fut en|son coeur,|_ fut en son|coeur tri-|
 f2 d2 g2 f2 | _e4 d2 z d | d2 d2 c4 | B4 A2 G2 | c4 A4 | G4 z2 =B2 | =B4 c4 |"^b" A2 A2 BABc | %23
w: st'et des- con- for-|té- e, voy-|ant l'ef- fort|faict à sa|cha- ste-|té, el-|le leur|dit: si par _ _ _|
 d6 d2 | c2 B2 A4 | d4 d2 d2 | ^c2 c2 d3 d | dd c2 A2 A2 | c2 d2 dd ^c2 | d2 z d d2 d2 | %30
w: _ des-|loy- au- té,|de ce corps|mien vous a- vez|iou- ys- san- ce, vous|a- vez iou- ys- san-|ce, de ce corps|
 ^c2 c2 d2 f2 | e2 d4 ^c2 | d4 z4 | z4 =B4 | c4 A4 | G2 d2 e4- | e2 ^f2 g2 z G | B2 A2 B2 c2 | d8 | %39
w: mien vous a- vez|iou- ys- san-|ce,|c'est|faict de|moy, c'est faict|_ de moy, si|ie fais re- si-|sten-|
 d8 | z4 c4 | c2 c2 A4 | d4 c2 B2 | c4 A4 | G2 G2 B4 | c4 d4 | z2 f2 e2 d2 | c4 f4 | f2 f2 g2 d2 | %49
w: ce,|vous|me fe- rez|mou- rir en|des- hon-|neur, mais i'ay-|me mieux,|mais i'ay- me|mieux pe-|rir en in- no-|
 _e4 d2 z d | d2 d2 _e2 d2 | c4 B2 d2 | d2 d2 c4 | B4 A2 G2 | c4 A4 |[M:2/4] =B4 | %56
w: cen- se, pe-|rir en in- no-|cen- se que|d'of- fen- ser|par pe- ché|le Sei-|gneur,|
[M:3/4] d2 d2 d2 | c4 B2- | B2 A2 G2 | c6 | A6 | !fermata!=B6 |] %62
w: que d'of- en-|ser par|_ pe- ché|le|Sei-|gneur.|
V:2
 z4 G4 | F2 E2 D4 | z2 B2 A2 G2 | F2 z F F2 F2 | G2 B4 A2 | B2 z A AABA | GF B4 A2 | B4 z2 A2- | %8
w: Su-|san- ne'un iour,|Su- san- ne'un|iour d'a- mour sol-|li- ci- té-|e, d'a- mour sol- li- ci-|té- * * *|e par|
 A2 A2 A2 G2- | G2 F4 G2 | E2 G4 ^F2 | G4 z2 G2 | F2 E2 D4 | z2 B2 A2 G2 | ^F2 z A A2 A2 | %15
w: _ deux vieil- lards|_ con- voi-|tans se beau-|té, fut|en son coeur|fut en son|coeur tri- st'et des-|
 B2 A2 GF B2- | B2 A2 B2 B2 | BA/G/FG A2 A2 | GF/E/DE F2 G2 | A2 G2 G2 ^F2 | G4 z4 | G4 G4 | %22
w: con- for- * * té-|* * e, voy-|ant _ _ _ _ _ l'ef-|fort _ _ _ _ _ faict|à sa cha- ste-|té,|el- le|
 ^F4 G4 | D2 FE FGAB | A2 G2 ^F4 |"^-natural" z2 D2 F3 G | A2 A2 B2 z G | G2 G2 ^F2 F2 | %28
w: leur dit:|si par des- loy- * * *|* au- té,|de ce _|_ corps mien vous|a- vez iou- ys-|
 G2 B2 A2 G2- | G2 ^F2 G2 B2 | A2 A2 ^F2 A2 |"^-natural" AA F3 G E2 | D2 D2 E4- | E2 ^F2 G2 D2 | %34
w: san- * * *|* * ce, de|ce corps mien vous|a- vez iou- ys- san-|ce, c'est faict|_ de moy, c'est|
 EF G4 ^F2 | G2 G2 G4 | A4 D2 D2 | G2 ^F2 GG E2 | D2 G2 F2 D2 | FF F2 G2 z G | G2 G2 E4 | A4 F4 | %42
w: faict _ _ de|moy, c'est faict|de moy, si|ie fais re- si- sten-|ce, si ie fais|re- si- sten- ce, vous|me fe- rez|mou- rir|
 B4 AG/A/BG | AG G4 ^F2 | G8 | z4 D4 | F4 G4 | A2 z A A2 A2 | B2 A2 GF B2- | B2 A2 B2 F2 | %50
w: en des- * * * *|* * * hon-|neur,|mais|i'ay- me|mieux pe- rir en|in- no- cen- * *|* * ce, pe-|
 F2 B2 G2 B2- | B2 A2 B2 z D- | D F2 A2 E2 G- | G D2 F2 C E2 | E2 G2 G2 ^F2 |[M:2/4] G4 | %56
w: rir en in- no-|* cen- se, que|_ d'of- fen- ser, que|_ d'of- fen- ser par|pe- ché le Sei-|gneur,|
[M:3/4] z2 D2 F2 | A2 E2 G2 | D2 F2 E2 | E2 E2 G2 | ^F4 F2 | !fermata!G6 |] %62
w: que d'of-|fen- ser, que|d'o- fen- ser|par pe- ché|le- Sei-|gneur.|
V:3
 z8 | z4 G4 | B4 c4 | d8 | z8 | z2 d2 d2 d2 |"^b" _e2 d2 c4 | B4 d4 | d2 d2 c4 | %9
w: |Su-|san- ne'un|iour,||d'a- mour sol-|li- ci- té-|e par|deux vieil- lards|
"^-natural" B4 A2 G2 | c4 A4 | G8 | z4 G4 | B4 c4 | d4 z2 d2 | d2 d2 _e2 d2 | c4 B2 G2 | %17
w: con- voi- tans|sa beau-|té,|fut|en son|coeur, tri-|st'et des- con- for-|té- e, voy-|
 Bcde f2 F2 | GABc d2 _e2 | c2 c2 d2 d2 | G4 z2 G2 | G4 c4 | d4 z2 G2 | BABc d3 B | f2 g2 d2 z d | %25
w: ant _ _ _ _ l'ef-|fort _ _ _ _ faict|à sa cha- ste-|té, el-|le leur|dit: si|par _ _ _ _ des-|loy- au- té, de|
 B6 B2 |"^-natural" A4 z2 G2 | B2 c2 d2 d2 | c2 G2 d2 _e2 | d4 G4 | z4 d2 dd | ^ccdd BG A2 | %32
w: ce corps|mien, de|ce corps mien vous|a- ves iou- ys-|san- ce,|de ce corps|mien vous a- vez iou- ys- san-|
 d2 =B2 c4 | A4 G2 G2 | c2 c2 d4 | z2 =B2 c4 | A4 G4 | z4 z2 A2 | B2 G2 B3 c | d4 G4 | c4 c2 c2 | %41
w: ce, c'est faict|de moy, c'est|faict de moy,|c'est faict|de moy,|si|ie fais re- si-|sten ce,|vous me fe-|
 A4 d4 | Bcde fe/f/gG | c4 d4 | G2 z G G2 B2- | BA/G/ A2 B4 | d4 c2 B2 | A4 d4 | d2 d2 _e2 d2 | %49
w: rez mou-|rir _ _ _ _ _ _ _ en|des- hon-|neur, mais i'ay- me|_ _ _ _ mieux,|mais i'ay- me|mieux pe-|rir en in- no-|
 c4 B2 B2 | B2 G2 c2 B2 | F4 B2 G2 | B2 d2 A2 c2 | G2 B2 F2 c2 | c2 c2 d2 d2 |[M:2/4] G4 | %56
w: cen- se, pe-|rir en in- no-|cen- se, que|d'of- fen- ser, que|d'off- fen- ser par|pe- ché le Sei-|gneur,|
[M:3/4] G2 B2 d2 | A2 c2 G2 | B2 F2 c2 | c4 c2 | d4 d2 | !fermata!G6 |] %62
w: que d'of- fen-|ser, que d'of-|fen- ser par|pe- ché|le Sei-|gneur.|

